src/topics/icons/cloudflare.svg

<svg height="116" preserveAspectRatio="xMidYMid" viewBox="0 0 256 116" width="256" xmlns="http://www.w3.org/2000/svg" xmlns:xlink="http://www.w3.org/1999/xlink"><radialGradient id="a" cx="54.701236%" cy="52.771237%" r="49.978579%"><stop offset="0" stop-color="#fff"/><stop offset=".1902" stop-color="#fce800"/><stop offset=".8593" stop-color="#ec8f27"/></radialGradient><linearGradient id="b" x1="50.033396%" x2="50.033396%" y1="40.182041%" y2="-6.529637%"><stop offset="0" stop-color="#f68b1f"/><stop offset="1" stop-color="#fff"/></linearGradient><linearGradient id="c"><stop offset="0" stop-color="#fff"/><stop offset=".04820809" stop-color="#fef6ed"/><stop offset=".2569" stop-color="#fbd0a5"/><stop offset=".4442" stop-color="#f9b26b"/><stop offset=".6034" stop-color="#f79d42"/><stop offset=".7282" stop-color="#f69028"/><stop offset=".8033" stop-color="#f68b1f"/></linearGradient><linearGradient id="d" x1="23.112906%" x2="49.169137%" xlink:href="#c" y1="2.836445%" y2="48.674385%"/><linearGradient id="e" x1="-6.441379%" x2="83.291066%" xlink:href="#c" y1="-87.453271%" y2="187.143925%"/><linearGradient id="f" x1="67.858247%" x2="52.76512%" xlink:href="#c" y1="-4.376751%" y2="67.742857%"/><linearGradient id="g" x1="49.993173%" x2="49.993173%" y1=".354417%" y2="99.773145%"><stop offset="0" stop-color="#f68b1f"/><stop offset=".5308" stop-color="#cb672f"/><stop offset="1" stop-color="#a1453f"/></linearGradient><radialGradient id="h" cx="50.374165%" cy="60.571082%" r="51.633545%"><stop offset="0" stop-color="#fff"/><stop offset=".1334" stop-color="#fce800"/><stop offset=".8593" stop-color="#ec8f27"/></radialGradient><path d="m199 33.9 5.8-20.1.8.1.6 21.1 10.8-17.9 1 .5-5.1 20.3 15.3-14.5.8.7-10.3 18.4 18.6-9.9.6.7-14.8 15.2 20.6-4.7.4.8-18.2 10.7 21.1.8v.9l-20.4 5.6 20.3 6v.9l-21.1.3 17.9 11.2-.5.9-20.4-5.1 14.4 15.2-.5.9-18.2-10.5 9.7 18.5-.9.7-15-14.7 5 20.3-1 .6-10.7-18.2-.3 20.9-1.1.3-5.8-20.2-6 20.2-1.1-.3v-20.9l-.6-.2-11.6 17.5 5-20.3-15.3 14.4-.9-.7 10.5-18.2-18.8 9.7-.6-.7 14.8-14.9-20.6 4.5-.3-.8 18.3-10.7-20.9-.8-.4-.9 20.3-5.7-20-5.9.1-1 21-.3-17.8-10.8.1-1 20.6 5.2-14.6-15.4.8-.8 18.4 10.1-10-18.3.6-.7 15.4 14.8-5-20.6-.2-.3 12.2 18.2.2-21.2h1.2z" fill="url(#a)"/><path d="m256 101.9c0-20.1-16.3-36.5-36.5-36.5-8.1 0-15.6 2.7-21.7 7.2.8-3.8 1.2-7.8 1.2-11.8 0-33.6-27.2-60.8-60.8-60.8-26.7 0-49.4 17.3-57.6 41.2-4.6-3.4-10.2-5.5-16.4-5.5-15.1 0-27.3 12.2-27.3 27.3 0 2.3.3 4.6.8 6.8-20.9.7-37.7 17.9-37.7 39 0 2.5.2 4.9.7 7.2h252.5c1.8-4.4 2.8-9.1 2.8-14.1z" fill="#f68b1f"/><path d="m191.8 60.8c0 29.6-24.1 48.3-53.7 48.3s-53.5-18.7-53.5-48.3 24-53.6 53.6-53.6 53.6 24 53.6 53.6" fill="url(#b)"/><path d="m183.6 61.1c0 18.1-20.5 32.8-45.7 32.8-25.3 0-45.7-14.7-45.7-32.8s20.5-32.8 45.7-32.8c25.3.1 45.7 14.7 45.7 32.8" fill="#f68b1f"/><circle cx="64.4" cy="63.2" fill="url(#d)" r="20.3"/><path d="m80.8 55.5c3.4 5.9-.9 14.9-9.6 19.9s-18.6 4.3-22-1.6.9-14.9 9.6-19.9c8.8-5.1 18.6-4.3 22 1.6" fill="#f68b1f"/><path d="m70.8 108.7c0-17.6-14.3-31.9-31.9-31.9s-31.9 14.3-31.9 31.9v.2h63.8z" fill="url(#e)"/><path d="m248.9 101.6c0-16.1-13-29.1-29.1-29.1s-29.1 13-29.1 29.1c0 2.3.3 4.5.8 6.6h56.7c.5-2.2.7-4.4.7-6.6z" fill="url(#f)"/><path d="m250.2 109.2-1.1-2.2-1.2-2-1.7-2.6-1.7-2.2-2-2.5-2.1-2.2-2.4-2.3-2.2-1.9-2.6-1.8-2.5-1.5-2.8-1.6-2.3-1.2-2.4-1-2.2-.6-2.2-.4-2.1-.4-2.6-.2-164.9.3-2.6.1-2.7.2-2.9.3-2.4.5-3.1.7-2.1.7-2.3.9-2.3.8-2.9 1.5-2.1 1-2.8 1.8-2.5 2-2.7 2.1-2.3 2.3-1.8 2.2-1.9 2.5-1.4 2.5-1.1 2.2-.6 2-.4 1.7h244.6z" fill="url(#g)"/><path d="m202.6 67.8 22.1 28.9-.8.6-25.8-23.2-99.1 18-.1-.9 92.1-21.2-50.7-17.2.6-.8z" fill="url(#h)"/></svg>

<?xml version="1.0" encoding="UTF-8" standalone="no"?>
<svg width="256px" height="116px" viewBox="0 0 256 116" version="1.1" xmlns="http://www.w3.org/2000/svg" xmlns:xlink="http://www.w3.org/1999/xlink" preserveAspectRatio="xMidYMid">
    <defs>
        <radialGradient cx="54.7012358%" cy="52.7712371%" fx="54.7012358%" fy="52.7712371%" r="49.9785788%" id="radialGradient-1">
            <stop stop-color="#FFFFFF" offset="0%"></stop>
            <stop stop-color="#FCE800" offset="19.02%"></stop>
            <stop stop-color="#EC8F27" offset="85.93%"></stop>
        </radialGradient>
        <linearGradient x1="50.0333955%" y1="40.1820412%" x2="50.0333955%" y2="-6.5296369%" id="linearGradient-2">
            <stop stop-color="#F68B1F" offset="0%"></stop>
            <stop stop-color="#FFFFFF" offset="100%"></stop>
        </linearGradient>
        <linearGradient x1="23.1129057%" y1="2.83644468%" x2="49.1691371%" y2="48.6743851%" id="linearGradient-3">
            <stop stop-color="#FFFFFF" offset="0%"></stop>
            <stop stop-color="#FEF6ED" offset="4.820809%"></stop>
            <stop stop-color="#FBD0A5" offset="25.69%"></stop>
            <stop stop-color="#F9B26B" offset="44.42%"></stop>
            <stop stop-color="#F79D42" offset="60.34%"></stop>
            <stop stop-color="#F69028" offset="72.82%"></stop>
            <stop stop-color="#F68B1F" offset="80.33%"></stop>
        </linearGradient>
        <linearGradient x1="-6.44137931%" y1="-87.453271%" x2="83.2910658%" y2="187.143925%" id="linearGradient-4">
            <stop stop-color="#FFFFFF" offset="0%"></stop>
            <stop stop-color="#FEF6ED" offset="4.820809%"></stop>
            <stop stop-color="#FBD0A5" offset="25.69%"></stop>
            <stop stop-color="#F9B26B" offset="44.42%"></stop>
            <stop stop-color="#F79D42" offset="60.34%"></stop>
            <stop stop-color="#F69028" offset="72.82%"></stop>
            <stop stop-color="#F68B1F" offset="80.33%"></stop>
        </linearGradient>
        <linearGradient x1="67.8582474%" y1="-4.3767507%" x2="52.7651203%" y2="67.7428571%" id="linearGradient-5">
            <stop stop-color="#FFFFFF" offset="0%"></stop>
            <stop stop-color="#FEF6ED" offset="4.820809%"></stop>
            <stop stop-color="#FBD0A5" offset="25.69%"></stop>
            <stop stop-color="#F9B26B" offset="44.42%"></stop>
            <stop stop-color="#F79D42" offset="60.34%"></stop>
            <stop stop-color="#F69028" offset="72.82%"></stop>
            <stop stop-color="#F68B1F" offset="80.33%"></stop>
        </linearGradient>
        <linearGradient x1="49.9931725%" y1="0.354416961%" x2="49.9931725%" y2="99.7731449%" id="linearGradient-6">
            <stop stop-color="#F68B1F" offset="0%"></stop>
            <stop stop-color="#CB672F" offset="53.08%"></stop>
            <stop stop-color="#A1453F" offset="100%"></stop>
        </linearGradient>
        <radialGradient cx="50.3741653%" cy="60.5710817%" fx="50.3741653%" fy="60.5710817%" r="51.6335453%" id="radialGradient-7">
            <stop stop-color="#FFFFFF" offset="0%"></stop>
            <stop stop-color="#FCE800" offset="13.34%"></stop>
            <stop stop-color="#EC8F27" offset="85.93%"></stop>
        </radialGradient>
    </defs>
	<g>
		<path d="M199,33.9 L204.8,13.8 L205.6,13.9 L206.2,35 L217,17.1 L218,17.6 L212.9,37.9 L228.2,23.4 L229,24.1 L218.7,42.5 L237.3,32.6 L237.9,33.3 L223.1,48.5 L243.7,43.8 L244.1,44.6 L225.9,55.3 L247,56.1 L247,57 L226.6,62.6 L246.9,68.6 L246.9,69.5 L225.8,69.8 L243.7,81 L243.2,81.9 L222.8,76.8 L237.2,92 L236.7,92.9 L218.5,82.4 L228.2,100.9 L227.3,101.6 L212.3,86.9 L217.3,107.2 L216.3,107.8 L205.6,89.6 L205.3,110.5 L204.2,110.8 L198.4,90.6 L192.4,110.8 L191.3,110.5 L191.3,89.6 L190.7,89.4 L179.1,106.9 L184.1,86.6 L168.8,101 L167.9,100.3 L178.4,82.1 L159.6,91.8 L159,91.1 L173.8,76.2 L153.2,80.7 L152.9,79.9 L171.2,69.2 L150.3,68.4 L149.9,67.5 L170.2,61.8 L150.2,55.9 L150.3,54.9 L171.3,54.6 L153.5,43.8 L153.6,42.8 L174.2,48 L159.6,32.6 L160.4,31.8 L178.8,41.9 L168.8,23.6 L169.4,22.9 L184.8,37.7 L179.8,17.1 L179.6,16.8 L191.8,35 L192,13.8 L193.2,13.8 L199,33.9 Z" fill="url(#radialGradient-1)"></path>
		<path d="M256,101.9 C256,81.8 239.7,65.4 219.5,65.4 C211.4,65.4 203.9,68.1 197.8,72.6 C198.6,68.8 199,64.8 199,60.8 C199,27.2 171.8,0 138.2,0 C111.5,0 88.8,17.3 80.6,41.2 C76,37.8 70.4,35.7 64.2,35.7 C49.1,35.7 36.9,47.9 36.9,63 C36.9,65.3 37.2,67.6 37.7,69.8 C16.8,70.5 0,87.7 0,108.8 C0,111.3 0.2,113.7 0.7,116 L253.2,116 C255,111.6 256,106.9 256,101.9 L256,101.9 Z" fill="#F68B1F"></path>
		<path d="M191.8,60.8 C191.8,90.4 167.7,109.1 138.1,109.1 C108.5,109.1 84.6,90.4 84.6,60.8 C84.6,31.2 108.6,7.2 138.2,7.2 C167.8,7.2 191.8,31.2 191.8,60.8" fill="url(#linearGradient-2)"></path>
		<path d="M183.6,61.1 C183.6,79.2 163.1,93.9 137.9,93.9 C112.6,93.9 92.2,79.2 92.2,61.1 C92.2,43 112.7,28.3 137.9,28.3 C163.2,28.4 183.6,43 183.6,61.1" fill="#F68B1F"></path>
		<circle fill="url(#linearGradient-3)" cx="64.4" cy="63.2" r="20.3"></circle>
		<path d="M80.8,55.5 C84.2,61.4 79.9,70.4 71.2,75.4 C62.5,80.4 52.6,79.7 49.2,73.8 C45.8,67.9 50.1,58.9 58.8,53.9 C67.6,48.8 77.4,49.6 80.8,55.5" fill="#F68B1F"></path>
		<path d="M70.8,108.7 C70.8,91.1 56.5,76.8 38.9,76.8 C21.3,76.8 7,91.1 7,108.7 L7,108.9 L70.8,108.9 L70.8,108.7 L70.8,108.7 Z" fill="url(#linearGradient-4)"></path>
		<path d="M248.9,101.6 C248.9,85.5 235.9,72.5 219.8,72.5 C203.7,72.5 190.7,85.5 190.7,101.6 C190.7,103.9 191,106.1 191.5,108.2 L248.2,108.2 C248.7,106 248.9,103.8 248.9,101.6 L248.9,101.6 Z" fill="url(#linearGradient-5)"></path>
		<path d="M250.2,109.2 L249.1,107 L247.9,105 L246.2,102.4 L244.5,100.2 L242.5,97.7 L240.4,95.5 L238,93.2 L235.8,91.3 L233.2,89.5 L230.7,88 L227.9,86.4 L225.6,85.2 L223.2,84.2 L221,83.6 L218.8,83.2 L216.7,82.8 L214.1,82.6 L49.2,82.9 L46.6,83 L43.9,83.2 L41,83.5 L38.6,84 L35.5,84.7 L33.4,85.4 L31.1,86.3 L28.8,87.1 L25.9,88.6 L23.8,89.6 L21,91.4 L18.5,93.4 L15.8,95.5 L13.5,97.8 L11.7,100 L9.8,102.5 L8.4,105 L7.3,107.2 L6.7,109.2 L6.3,110.9 L250.9,110.9 L250.2,109.2 Z" fill="url(#linearGradient-6)"></path>
		<path d="M202.6,67.8 L224.7,96.7 L223.9,97.3 L198.1,74.1 L99,92.1 L98.9,91.2 L191,70 L140.3,52.8 L140.9,52 L202.6,67.8 Z" fill="url(#radialGradient-7)"></path>
	</g>
</svg>
